packages/icons/svg/Fill/bar-chart.svg

<svg fill="none" height="24" viewBox="0 0 24 24" width="24" xmlns="http://www.w3.org/2000/svg"><path clip-rule="evenodd" d="m12 4c-.55 0-1 .45-1 1v15c0 .55.45 1 1 1s1-.45 1-1v-15c0-.55-.45-1-1-1zm7 8.0001c-.55 0-1 .45-1 1v7c0 .55.45 1 1 1s1-.45 1-1v-7c0-.55-.45-1-1-1zm-15.00003-3.00017c0-.55.45-1 1-1s1 .45 1 1v10.99997c0 .55-.45 1-1 1s-1-.45-1-1z" fill="#6b7280" fill-rule="evenodd"/></svg>

<svg width="24" height="24" viewBox="0 0 24 24" fill="none" xmlns="http://www.w3.org/2000/svg">
<g id="Icon/Fill/bar-chart">
<path id="Mask" fill-rule="evenodd" clip-rule="evenodd" d="M12 4C11.45 4 11 4.45 11 5V20C11 20.55 11.45 21 12 21C12.55 21 13 20.55 13 20V5C13 4.45 12.55 4 12 4ZM19 12C18.45 12 18 12.45 18 13V20C18 20.55 18.45 21 19 21C19.55 21 20 20.55 20 20V13C20 12.45 19.55 12 19 12ZM4 9C4 8.45 4.45 8 5 8C5.55 8 6 8.45 6 9V20C6 20.55 5.55 21 5 21C4.45 21 4 20.55 4 20V9Z" fill="#000000"/>
</g>
</svg>
